public/images/logo/tag.svg

<svg width="22" height="22" viewBox="0 0 22 22" fill="none" xmlns="http://www.w3.org/2000/svg">
<g clip-path="url(#clip0)">
<path d="M17.5512 12.6029C17.5512 12.2013 17.4083 11.8498 17.1226 11.5485L8.83939 3.27688C8.54594 2.98319 8.15206 2.73421 7.65776 2.52962C7.16349 2.32499 6.71155 2.22266 6.30221 2.22266H1.48288C1.08133 2.22266 0.733667 2.3695 0.440298 2.66283C0.146725 2.95632 0 3.3039 0 3.70557V8.52491C0 8.93425 0.102213 9.38591 0.306922 9.88033C0.511672 10.3748 0.760854 10.7646 1.05422 11.0504L9.33751 19.3452C9.62329 19.631 9.97083 19.7739 10.3801 19.7739C10.7817 19.7739 11.1333 19.631 11.4344 19.3452L17.1227 13.6454C17.4083 13.3595 17.5512 13.0122 17.5512 12.6029ZM4.75575 6.97829C4.46608 7.26792 4.11659 7.41282 3.70721 7.41282C3.29799 7.41282 2.94851 7.26792 2.65883 6.97829C2.36915 6.68861 2.22446 6.33924 2.22446 5.92991C2.22446 5.52053 2.36915 5.17104 2.65883 4.88153C2.94851 4.59185 3.29799 4.44695 3.70721 4.44695C4.11659 4.44695 4.46608 4.59185 4.75575 4.88153C5.04527 5.17104 5.19021 5.52057 5.19021 5.92991C5.19017 6.33924 5.04527 6.68861 4.75575 6.97829Z" fill="currentColor"/>
<path d="M21.5716 11.5485L13.2883 3.27688C12.9949 2.98319 12.6009 2.73421 12.1066 2.52958C11.6125 2.32499 11.1606 2.22266 10.7513 2.22266H8.15625C8.56559 2.22266 9.01737 2.32499 9.51159 2.52958C10.006 2.73433 10.3999 2.98331 10.6934 3.27688L18.9766 11.5485C19.2625 11.8497 19.4055 12.2011 19.4055 12.6027C19.4055 13.0121 19.2625 13.3593 18.9766 13.6452L13.5316 19.0902C13.7636 19.3296 13.9681 19.5034 14.1456 19.6115C14.3233 19.7197 14.5512 19.7737 14.8291 19.7737C15.2309 19.7737 15.5824 19.6309 15.8833 19.3451L21.5716 13.6453C21.8575 13.3594 22.0005 13.0121 22.0005 12.6027C22.0004 12.2011 21.8575 11.8497 21.5716 11.5485Z" fill="currentColor"/>
</g>
<defs>
<clipPath id="clip0">
<rect width="22" height="22" fill="white"/>
</clipPath>
</defs>
</svg>

<svg width="22" height="22" fill="none" xmlns="http://www.w3.org/2000/svg"><g clip-path="url(#clip0)" fill="currentColor"><path d="M17.551 12.603c0-.402-.143-.753-.428-1.054L8.839 3.277c-.293-.294-.687-.543-1.181-.747-.495-.205-.946-.307-1.356-.307h-4.82c-.4 0-.748.147-1.042.44-.293.293-.44.64-.44 1.043v4.819c0 .41.102.86.307 1.355.205.495.454.885.747 1.17l8.284 8.295a1.42 1.42 0 001.042.429c.402 0 .753-.143 1.054-.429l5.689-5.7a1.42 1.42 0 00.428-1.042zM4.756 6.978c-.29.29-.64.435-1.049.435-.409 0-.758-.145-1.048-.435-.29-.29-.435-.639-.435-1.048 0-.41.145-.759.435-1.048.29-.29.639-.435 1.048-.435.41 0 .76.145 1.049.435.29.289.434.639.434 1.048 0 .41-.145.759-.434 1.048z"/><path d="M21.572 11.549l-8.284-8.272c-.293-.294-.687-.543-1.181-.747-.494-.205-.946-.307-1.356-.307H8.156c.41 0 .861.102 1.356.307.494.204.888.453 1.181.747l8.284 8.271c.285.302.428.653.428 1.055 0 .41-.143.756-.428 1.042l-5.445 5.445c.232.24.436.413.614.521.177.109.405.163.683.163.402 0 .753-.143 1.054-.429l5.689-5.7c.286-.286.428-.633.428-1.042 0-.402-.142-.753-.428-1.054z"/></g><defs><clipPath id="clip0"><path fill="#fff" d="M0 0h22v22H0z"/></clipPath></defs></svg>
